src/icons/home.svg

<svg width="16" height="16" viewBox="0 0 16 16" fill="none" xmlns="http://www.w3.org/2000/svg">
<path fill-rule="evenodd" clip-rule="evenodd" d="M8.35999 1.37L14.72 7.16999L14.01 7.87999L13 6.96411V13.49L12.5 13.99H9.50001L9.00001 13.49V9.99002H7.00001V13.49L6.50001 13.99H3.50001L3.00001 13.49L3 6.97166L2.00001 7.87999L1.29001 7.16999L7.63999 1.37H7.64999H8.34999H8.35999ZM4.00001 6.06332V12.99H6.00001V9.49002L6.50001 8.99002H9.50001L10 9.49002V12.99H12V6.05729L7.99999 2.43L4.00001 6.06332Z" fill="white"/>
</svg>

<svg width="16" height="16" xmlns="http://www.w3.org/2000/svg"><path fill-rule="evenodd" clip-rule="evenodd" d="M8.36 1.37l6.36 5.8-.71.71L13 6.964v6.526l-.5.5h-3l-.5-.5v-3.5H7v3.5l-.5.5h-3l-.5-.5V6.972L2 7.88l-.71-.71 6.35-5.8h.72zM4 6.063v6.927h2v-3.5l.5-.5h3l.5.5v3.5h2V6.057L8 2.43 4 6.063z"/></svg>
